X: 3
T: Hughie Shortie's Reel $1(R-98)
I: Hughie Shortie's Reel	R-98	G	reel
%%musicspace	0.2cm
C: Johnny Wilmot
M: C|
R: reel
K: G
"G"G2BG "D"cAFA| "G"GABd g2fg| "C"ecAc "G"dBGB| "Am"cAAB "D"AFD2|
"G"DGBG "D"cAFA| "G"GABd g2fg| "C"ecAc "G"dBGB| "D"cAFA "G"G4 :|
"G"g2dg bgag| "C"ec c/c/c "Am"efge| "G"dB B/B/B "Em"dBGB| "C"cAAB "D"AFD2|
"G"g2dg bgag| "C"ec c/c/c efge| "G"dB B/B/B "C"dBGB| "D"cAGF "G"G4|
"G"g2dg bgag| "C"ec c/c/c "Am"efge| "G"dB B/B/B "Em"dBGB| "C"cAAB "D"AFD2|
"C"G,CEC "G"B,DdB| "D"cdef "G"g2fg| "C"ecAc "G"dBGB| "D"cAFA "G"G4|]
%%text $108/29/98 

#include "RightHeader.h"
% ---------- set 3 ----------
% Joys of Quebec(A) / Gaspe Reel(D) / Eddie's Reel(G)
%%text Set 3
%%vskip -1cm
%%textfont Times-Roman 8.0
%%scale .7
